X:700
T:Trepeletr
C:Tradicional
S:Msica Tradicional Asturiana, (C) Tello & Tito. Asturies, 2001.
S:http://pagina.de/MusTradAst <telloytito@asturies.org>
A:Asturies
O:San Roque L'Acebal (Llanes)
Z:ByD IDEA
M:3/8
L:1/8
Q:1/8=208
K:C
|G2 G|GAG|FED|CFF|G2 G-|G2 z|
|G2 G|GAG|FED|F_ED|C2 C|CB,C|D2 B,|D2 B,|DD_C|F_ED|C z2|
